svgs/light/sensor-on.svg

<svg xmlns="http://www.w3.org/2000/svg" viewBox="0 0 640 512"><!--! Font Awesome Pro 6.0.0-alpha3 by @fontawesome - https://fontawesome.com License - https://fontawesome.com/license (Commercial License) --><path d="M112 128C103.1 128 96 135.1 96 144v128C96 280.9 103.1 288 112 288S128 280.9 128 272v-128C128 135.1 120.9 128 112 128zM176 128C167.1 128 160 135.1 160 144v128C160 280.9 167.1 288 176 288S192 280.9 192 272v-128C192 135.1 184.9 128 176 128zM240 128C231.1 128 224 135.1 224 144v128C224 280.9 231.1 288 240 288S256 280.9 256 272v-128C256 135.1 248.9 128 240 128zM384 32H64C28.62 32 0 60.63 0 96v320c0 35.38 28.62 64 64 64h320c35.38 0 64-28.62 64-64V96C448 60.63 419.4 32 384 32zM416 416c0 17.62-14.38 32-32 32H64c-17.62 0-32-14.38-32-32V96c0-17.62 14.38-32 32-32h320c17.62 0 32 14.38 32 32V416zM600.2 418.3l-80-48c-7.469-4.531-17.38-2.062-21.94 5.5s-2.094 17.41 5.5 21.94l80 48C586.3 447.3 589.2 448 592 448c5.406 0 10.72-2.781 13.72-7.781C610.3 432.7 607.8 422.8 600.2 418.3zM513.1 143c2.812 0 5.625-.7187 8.188-2.25l78.88-47c7.594-4.531 10.09-14.34 5.562-21.94c-4.562-7.625-14.44-10.09-21.94-5.562l-78.88 47c-7.594 4.531-10.09 14.34-5.562 21.94C502.4 140.2 507.7 143 513.1 143zM624 240h-96C519.2 240 512 247.2 512 256s7.156 16 16 16h96C632.8 272 640 264.8 640 256S632.8 240 624 240z"/></svg>

<svg xmlns="http://www.w3.org/2000/svg" viewBox="0 0 640 512"><!-- Font Awesome Pro 5.15.3 by @fontawesome - https://fontawesome.com License - https://fontawesome.com/license (Commercial License) --><path d="M528,144a16.16,16.16,0,0,0,7.16-1.68l64-32a16,16,0,0,0-14.32-28.63l-64,32A16,16,0,0,0,528,144Zm96,96H528a16,16,0,1,0,0,32h96a16,16,0,0,0,0-32ZM384,32H64A64,64,0,0,0,0,96V416a64,64,0,0,0,64,64H384a64,64,0,0,0,64-64V96A64,64,0,0,0,384,32Zm32,384a32,32,0,0,1-32,32H64a32,32,0,0,1-32-32V96A32,32,0,0,1,64,64H384a32,32,0,0,1,32,32ZM112,128a16,16,0,0,0-16,16V272a16,16,0,0,0,32,0V144A16,16,0,0,0,112,128Zm64,0a16,16,0,0,0-16,16V272a16,16,0,0,0,32,0V144A16,16,0,0,0,176,128Zm64,0a16,16,0,0,0-16,16V272a16,16,0,0,0,32,0V144A16,16,0,0,0,240,128ZM599.16,401.7l-64-32a16,16,0,0,0-14.32,28.63l64,32a16,16,0,0,0,14.32-28.63Z"/></svg>
